X: 34
T: Acemkürdî Seyir
C: Şefik Gürmeriç
O: Turkey
F: http://compmusic.upf.edu/node/140
N: acemkurdi--seyir--sofyan--1--sefik_gurmeric
N: makam= acemkurdi
N: form= seyir
N: usul= sofyan = 4/4
M: 4/4
L: 1/16
K: C _B   
Q: 1/4=60
%%MIDI tuningsystem comma53
c4 f8 a4  | g3f e2g2 f4 z4  | e2f2 g2a2 g4 f2e2  | \
w:   |   |   | 
e2d2 d2^c2 d4 z4  | 
w:   | 
a4 g2f2 e4 d4  | e2d2 c2=B2 c4 d2e2  | \
w:   |   | 
f4 g2a2 c'2b2 a2g2  | g2f2 f2e2 f4 z4  | 
w:   |   | 
e2f2 g2b2 a4 g4  | f2g2 f2e2 d4 c2d2  | \
w:   |   | 
e2f4e2 e2d2 d2c2  | c3B A2c2 B4 z4  | 
w:   |   | 
A2B2 c2_e2 d4 c4  | B3A G2A2 G4 A2B2  | \
w:   |   | 
c2d4dc c3B cBBA  | 
w:   | 
A16  | |


